X: 1684
T: Saçın Yüzüme Değse
C: Teoman Alpay
O: Turkey
F: http://compmusic.upf.edu/node/140
N: huzzam--sarki--duyek--sacin_yuzume--teoman_alpay
N: makam= huzzam
N: form= sarki
N: usul= duyek = 8/4
M: 8/4
L: 1/16
K: C _1/4B _3/4e ^3/4f 
Q: 1/4=186
%%MIDI tuningsystem comma53
z2 g2 a2 _b2 a4 g2 ^f2  | ^f16  | z2 e2 ^f2 g2 g2 f2 e2 d2  | e16  | \
w:   |   |   |   | 
z2 c2 d2 e2 g4 ^f2 d2  | 
w:   | 
c16  | z2 B2 c2 d2 e4 c2 d2  | B16  | z2 g2 a2 _b2 a4 g2 ^f2  | ^f16  | \
w:   |   |   |   |   | 
z2 e2 ^f2 g2 g2 f2 e2 d2  | 
w:   | 
e16  | z2 c2 d2 e2 g4 ^f2 d2  | c16  | z2 B2 c2 d2 e4 c2 d2  | B16  | \
w:   |   |   |   |   | 
z2 B2 d2 B2 c2 B2 d2 B2  | 
w:  Sa çın  yü zü ne  değ  | 
d16  | z2 d2 e2 ^f2 a4 g2 f2  | ^f16  | \
w:  se   |  te li ni  kıs ka nı  |  rım    | 
z2 e2 ^f2 g2 a4 g4  | ^f2 e14  | z2 a2 _b2 g2 ^f4 e2 d2  | 
w:  Bi ri ne  söz  söy  |  le sen   |  di li ni  kıs ka nı  | 
d16  | z2 B2 d2 B2 c2 B2 d2 B2  | d16  | \
w:  rım    |  Sa çın  yü zü ne  değ  |  se   | 
z2 d2 e2 ^f2 a4 g2 f2  | ^f16  | z2 e2 ^f2 g2 a4 g4  | 
w:  te li ni  kıs ka nı  |  rım    |  Bi ri ne  söz  söy  | 
^f2 e14  | z2 a2 _b2 g2 ^f4 e2 d2  | d16  | \
w:  le sen   |  di li ni  kıs ka nı  |  rım    | 
z2 g2 a2 _b2 a4 g2 ^f2  | ^f16  | z2 e2 ^f2 g2 g2 f2 f2 d2  | 
w:  Kıs ka nı rım  se ni   |  ben   |  kıs ka nı rım  *  kal bim  | 
e16  | z2 c2 d2 e2 g4 ^f2 d2  | c16  | z2 B2 c2 d2 e4 c2 d2  | B16  | \
w:  den    |  Bu  na sıl_ aşk  Al la  |  hım   |  ö le ce ğim  der dim  |  den    | 
z2 g2 a2 _b2 a4 g2 ^f2  | 
w:  Kıs ka nı rım  se ni   | 
^f16  | z2 e2 ^f2 g2 g2 f2 f2 d2  | e16  | \
w:  ben   |  kıs ka nı rım  *  kal bim  |  den    | 
z2 c2 d2 e2 g4 ^f2 d2  | c16  | z2 B2 c2 d2 e4 c2 d2  | 
w:  Bu  na sıl_ aşk  Al la  |  hım   |  ö le ce ğim  der dim  | 
B16  | z2 g2 a2 _b2 a4 g2 ^f2  | ^f16  | \
w:  den    |   |   | 
z2 e2 ^f2 g2 g2 f2 e2 d2  | e16  | z2 c2 d2 e2 g4 ^f2 d2  | 
w:   |   |   | 
c16  | z2 B2 c2 d2 e4 c2 d2  | B16  | z2 g2 a2 _b2 a4 g2 ^f2  | ^f16  | \
w:   |   |   |   |   | 
z2 e2 ^f2 g2 g2 f2 e2 d2  | 
w:   | 
e16  | z2 c2 d2 e2 g4 ^f2 d2  | c16  | z2 B2 c2 d2 e4 c2 d2  | B16  | \
w:   |   |   |   |   | 
z2 B2 d2 B2 c2 B2 d2 B2  | 
w:  Sa çın  yü zü ne  değ  | 
d16  | z2 d2 e2 ^f2 a4 g2 f2  | ^f16  | \
w:  se   |  te li ni  kıs ka nı  |  rım    | 
z2 e2 ^f2 g2 a4 g4  | ^f2 e14  | z2 a2 _b2 g2 ^f4 e2 d2  | 
w:  Bi ri ne  söz  söy  |  le sen   |  di li ni  kıs ka nı  | 
d16  | z2 B2 d2 B2 c2 B2 d2 B2  | d16  | \
w:  rım    |  Sa çın  yü zü ne  değ  |  se   | 
z2 d2 e2 ^f2 a4 g2 f2  | ^f16  | z2 e2 ^f2 g2 a4 g4  | 
w:  te li ni  kıs ka nı  |  rım    |  Bi ri ne  söz  söy  | 
^f2 e14  | z2 a2 _b2 g2 ^f4 e2 d2  | d16  | \
w:  le sen   |  di li ni  kıs ka nı  |  rım    | 
z2 g2 a2 _b2 a4 g2 ^f2  | ^f16  | z2 e2 ^f2 g2 g2 f2 f2 d2  | 
w:  Kıs ka nı rım  se ni   |  ben   |  kıs ka nı rım  *  kal bim  | 
e16  | z2 c2 d2 e2 g4 ^f2 d2  | c16  | z2 B2 c2 d2 e4 c2 d2  | B16  | \
w:  den    |  Bu  na sıl_ aşk  Al la  |  hım   |  ö le ce ğim  der dim  |  den    | 
z2 g2 a2 _b2 a4 g2 ^f2  | 
w:  Kıs ka nı rım  se ni   | 
^f16  | z2 e2 ^f2 g2 g2 f2 f2 d2  | e16  | \
w:  ben   |  kıs ka nı rım  *  kal bim  |  den    | 
z2 c2 d2 e2 g4 ^f2 d2  | c16  | z2 B2 c2 d2 e4 c2 d2  | 
w:  Bu  na sıl_ aşk  Al la  |  hım   |  ö le ce ğim  der dim  | 
B16  | |


